assets/icons/light-rain.svg

<svg class="ucla-icon light-rain" width="24" height="24" viewBox="0 0 24 24" aria-labelledby="icon-light-rain" role="img"><title id="icon-light-rain">Icon Weather/Light Rain</title><g fill="none" fill-rule="evenodd"><path d="M2 13.5c0-1.1.4-2.2 1.1-3.1.7-.9 1.6-1.5 2.7-1.7.3-1.4 1-2.5 2.1-3.4C9 4.4 10.3 4 11.7 4s2.6.4 3.7 1.3 1.8 1.9 2.1 3.3h.3c.9 0 1.7.2 2.5.6.8.4 1.4 1 1.8 1.8.4.8.7 1.6.7 2.5 0 1.3-.5 2.5-1.4 3.5-.9 1-2 1.5-3.4 1.5-.1 0-.2-.1-.2-.2V17c0-.1.1-.2.2-.2.9 0 1.6-.4 2.2-1 .6-.6.9-1.4.9-2.3 0-.9-.3-1.6-1-2.3-.6-.6-1.4-1-2.3-1h-1.6c-.1 0-.2-.1-.2-.2l-.1-.6c-.1-1.1-.6-2-1.4-2.7-.8-.7-1.8-1.1-2.9-1.1-1.1 0-2.1.4-2.9 1.1-.8.7-1.3 1.6-1.4 2.7l.1.7c0 .1-.1.2-.2.2h-.5c-.8 0-1.5.4-2.1 1-.6.6-.9 1.3-.9 2.2 0 .9.3 1.6.9 2.3.6.7 1.3 1 2.2 1 .1 0 .2.1.2.2v1.3c0 .1-.1.2-.2.2-1.3-.1-2.5-.6-3.4-1.5-.9-.9-1.4-2.2-1.4-3.5zm6 .9c0-.2.1-.6.4-1 .2-.4.5-.8.7-1 .2-.2.3-.4.4-.4l.4.4c.3.3.5.6.7 1 .2.4.3.7.3 1 0 .4-.1.7-.4 1-.3.3-.6.4-1 .4s-.7-.1-1-.4c-.4-.3-.5-.6-.5-1zm3 4c0-.3.1-.6.2-1s.4-.7.6-1c.2-.3.4-.5.7-.8l.6-.6.2-.2.2.2c.4.3.8.8 1.3 1.5.2.3.4.7.6 1 .2.3.2.7.2 1 0 .6-.2 1.2-.7 1.6-.5.4-1 .7-1.7.7-.6 0-1.2-.2-1.6-.7-.4-.5-.6-1.1-.6-1.7zm1.4-6.7c0-.4.3-.9 1-1.6l.2.2c.2.2.3.4.5.7.1.3.2.5.2.6 0 .3-.1.5-.3.7-.2.2-.4.3-.7.3-.3 0-.5-.1-.7-.3-.1-.1-.2-.3-.2-.6z" id="Shape" fill="#000"/></g></svg>

<?xml version="1.0" encoding="UTF-8"?>
<svg width="24px" height="24px" viewBox="0 0 24 24" version="1.1" xmlns="http://www.w3.org/2000/svg" xmlns:xlink="http://www.w3.org/1999/xlink">
    <!-- Generator: Sketch 53.2 (72643) - https://sketchapp.com -->
    <title>Icon/Weather/Light Rain</title>
    <desc>Created with Sketch.</desc>
    <g id="Icon/Weather/Light-Rain" stroke="none" stroke-width="1" fill="none" fill-rule="evenodd">
        <path d="M2,13.5 C2,12.4 2.4,11.3 3.1,10.4 C3.8,9.5 4.7,8.9 5.8,8.7 C6.1,7.3 6.8,6.2 7.9,5.3 C9,4.4 10.3,4 11.7,4 C13.1,4 14.3,4.4 15.4,5.3 C16.5,6.2 17.2,7.2 17.5,8.6 L17.8,8.6 C18.7,8.6 19.5,8.8 20.3,9.2 C21.1,9.6 21.7,10.2 22.1,11 C22.5,11.8 22.8,12.6 22.8,13.5 C22.8,14.8 22.3,16 21.4,17 C20.5,18 19.4,18.5 18,18.5 C17.9,18.5 17.8,18.4 17.8,18.3 L17.8,17 C17.8,16.9 17.9,16.8 18,16.8 C18.9,16.8 19.6,16.4 20.2,15.8 C20.8,15.2 21.1,14.4 21.1,13.5 C21.1,12.6 20.8,11.9 20.1,11.2 C19.5,10.6 18.7,10.2 17.8,10.2 L16.2,10.2 C16.1,10.2 16,10.1 16,10 L15.9,9.4 C15.8,8.3 15.3,7.4 14.5,6.7 C13.7,6 12.7,5.6 11.6,5.6 C10.5,5.6 9.5,6 8.7,6.7 C7.9,7.4 7.4,8.3 7.3,9.4 L7.4,10.1 C7.4,10.2 7.3,10.3 7.2,10.3 L6.7,10.3 C5.9,10.3 5.2,10.7 4.6,11.3 C4,11.9 3.7,12.6 3.7,13.5 C3.7,14.4 4,15.1 4.6,15.8 C5.2,16.5 5.9,16.8 6.8,16.8 C6.9,16.8 7,16.9 7,17 L7,18.3 C7,18.4 6.9,18.5 6.8,18.5 C5.5,18.4 4.3,17.9 3.4,17 C2.5,16.1 2,14.8 2,13.5 Z M8,14.4 C8,14.2 8.1,13.8 8.4,13.4 C8.6,13 8.9,12.6 9.1,12.4 C9.3,12.2 9.4,12 9.5,12 L9.9,12.4 C10.2,12.7 10.4,13 10.6,13.4 C10.8,13.8 10.9,14.1 10.9,14.4 C10.9,14.8 10.8,15.1 10.5,15.4 C10.2,15.7 9.9,15.8 9.5,15.8 C9.1,15.8 8.8,15.7 8.5,15.4 C8.1,15.1 8,14.8 8,14.4 Z M11,18.4 C11,18.1 11.1,17.8 11.2,17.4 C11.3,17 11.6,16.7 11.8,16.4 C12,16.1 12.2,15.9 12.5,15.6 C12.8,15.3 13,15.1 13.1,15 C13.2,14.9 13.2,14.9 13.3,14.8 L13.5,15 C13.9,15.3 14.3,15.8 14.8,16.5 C15,16.8 15.2,17.2 15.4,17.5 C15.6,17.8 15.6,18.2 15.6,18.5 C15.6,19.1 15.4,19.7 14.9,20.1 C14.4,20.5 13.9,20.8 13.2,20.8 C12.6,20.8 12,20.6 11.6,20.1 C11.2,19.6 11,19 11,18.4 Z M12.4,11.7 C12.4,11.3 12.7,10.8 13.4,10.1 L13.6,10.3 C13.8,10.5 13.9,10.7 14.1,11 C14.2,11.3 14.3,11.5 14.3,11.6 C14.3,11.9 14.2,12.1 14,12.3 C13.8,12.5 13.6,12.6 13.3,12.6 C13,12.6 12.8,12.5 12.6,12.3 C12.5,12.2 12.4,12 12.4,11.7 Z" id="Shape" fill="#000000"></path>
    </g>
</svg>
